X:20
T: The Maid of Ballydoo, S. 70
N: I0519
O: Irland
S: O BOYLE, Sean: 25 Irish Folksongs, Dublin 1976]
R: Liebeslied]
M: 4/4
L: 1/16
K: C
EF | G2G2G2G2G2E2F2G2 | c3EF2D2C6
ED | C2D2E2F2G2A2B2c2 | d2G2d2A2G6
GF | E2D2E2F2G2E2D2C2 | E2D2D2C2c6
cd | e2c2d2B2c2G2F2GF | E2C2D2D2C6

@@@ Tune index: 7295
